X:150
T: Old John's
T: Port Shean tSe\'ain
S: "Ceol Rince na hEireann" 1/22
N: Named by B.Breathnach
Z: B.Black
L: 1/8
M: 6/8
R: jig
K: Ador
e/d/|cAA cAA|GEF GAB|cAA A2G|Add ded|
cAA cAA|GEF GAB|cde e2d|1 cAA A2 :|2 cAA A3||
efg eaa|ged cAA|efg eaa|bag a3|
efg eaa|ged cAA|cde e2d|cAA A2 :|


